lib/functional/brands/microsoft-teams-logo.svg

<svg xmlns="http://www.w3.org/2000/svg" fill="none" stroke="currentColor" aria-hidden="true" viewBox="0 0 32 32"><g id="Icon-MicrosoftTeamsLogo"><g clip-path="url(#clip0_11_3729)"><g id="size=md (32px)"><path id="Vector" stroke-linecap="round" stroke-linejoin="round" stroke-width="2" d="M18 9H5C4.44772 9 4 9.44772 4 10V22C4 22.5523 4.44772 23 5 23H18C18.5523 23 19 22.5523 19 22V10C19 9.44772 18.5523 9 18 9Z"/><path id="Vector_2" stroke-linecap="round" stroke-linejoin="round" stroke-width="2" d="M18.9996 11H22.9996C23.2648 11 23.5192 11.1054 23.7067 11.2929C23.8943 11.4804 23.9996 11.7348 23.9996 12V21C23.9996 22.8565 23.2621 24.637 21.9494 25.9497C20.6366 27.2625 18.8561 28 16.9996 28V28C15.4919 27.9989 14.0247 27.5119 12.8156 26.6113C11.6065 25.7106 10.7198 24.4443 10.2871 23"/><path id="Vector_3" stroke-linecap="round" stroke-linejoin="round" stroke-width="2" d="M13.75 13H9.25"/><path id="Vector_4" stroke-linecap="round" stroke-linejoin="round" stroke-width="2" d="M11.5 19V13"/><path id="Vector_5" stroke-linecap="round" stroke-linejoin="round" stroke-width="2" d="M13.538 8.99994C13.142 8.31492 12.958 7.52784 13.0094 6.73827C13.0608 5.9487 13.3452 5.1921 13.8267 4.56419C14.3081 3.93627 14.965 3.46525 15.7141 3.2107C16.4633 2.95614 17.2712 2.9295 18.0355 3.13414C18.7998 3.33877 19.4863 3.76549 20.008 4.36032C20.5298 4.95515 20.8634 5.69136 20.9667 6.47584C21.07 7.26031 20.9384 8.05779 20.5884 8.76742C20.2384 9.47704 19.6858 10.0669 19.0005 10.4624"/><path id="Vector_6" stroke-linecap="round" stroke-linejoin="round" stroke-width="2" d="M20.7629 5.65005C21.2141 5.11608 21.8254 4.74182 22.5062 4.58284C23.187 4.42386 23.9008 4.48862 24.5419 4.76751C25.1829 5.04641 25.7169 5.52457 26.0647 6.13102C26.4124 6.73747 26.5554 7.43989 26.4723 8.13401C26.3892 8.82813 26.0845 9.47696 25.6034 9.98418C25.1223 10.4914 24.4905 10.83 23.8018 10.9497C23.113 11.0694 22.404 10.9638 21.78 10.6486C21.156 10.3334 20.6503 9.82544 20.3379 9.20005"/><path id="Vector_7" stroke-linecap="round" stroke-linejoin="round" stroke-width="2" d="M24.0004 11H27.4129C27.5687 11 27.7181 11.0619 27.8283 11.1721C27.9385 11.2823 28.0004 11.4317 28.0004 11.5875V19C28.0004 20.0609 27.579 21.0783 26.8288 21.8284C26.0787 22.5786 25.0613 23 24.0004 23H23.7129"/></g></g></g><defs><clipPath id="clip0_11_3729"><rect width="32" height="32" fill="white" rx="5"/></clipPath></defs></svg>

<svg xmlns="http://www.w3.org/2000/svg" fill="none" stroke="currentColor" aria-hidden="true" viewBox="0 0 32 32"><g stroke="#101828" stroke-linecap="round" stroke-linejoin="round" stroke-width="2" clip-path="url(#a)"><path d="M18 9H5a1 1 0 0 0-1 1v12a1 1 0 0 0 1 1h13a1 1 0 0 0 1-1V10a1 1 0 0 0-1-1Z"/><path d="M19 11h4a1 1 0 0 1 1 1v9a7 7 0 0 1-7 7v0a7.013 7.013 0 0 1-6.713-5m3.463-10h-4.5m2.25 6v-6m2.038-4A4 4 0 1 1 19 10.462"/><path d="M20.763 5.65a3.25 3.25 0 1 1-.425 3.55"/><path d="M24 11h3.413a.587.587 0 0 1 .587.588V19a4 4 0 0 1-4 4h-.287"/></g><defs><clipPath id="a"><rect width="32" height="32" fill="#fff" rx="5"/></clipPath></defs></svg>
